icons/1_Primary/Firefly III.svg

<svg width="1024" height="1024" viewBox="0 0 1024 1024" fill="none" xmlns="http://www.w3.org/2000/svg">
<g clip-path="url(#clip0_2_2205)">
<path d="M512 1024C794.77 1024 1024 794.77 1024 512C1024 229.23 794.77 0 512 0C229.23 0 0 229.23 0 512C0 794.77 229.23 1024 512 1024Z" fill="#F8C18C"/>
<path d="M447.8 626.16C447.8 628.013 447.251 629.825 446.221 631.366C445.191 632.907 443.728 634.108 442.016 634.817C440.304 635.526 438.42 635.712 436.602 635.35C434.785 634.988 433.115 634.096 431.805 632.786C430.494 631.475 429.602 629.806 429.24 627.988C428.879 626.17 429.064 624.286 429.773 622.574C430.483 620.862 431.684 619.399 433.225 618.369C434.765 617.34 436.577 616.79 438.43 616.79C439.661 616.79 440.879 617.032 442.016 617.503C443.153 617.974 444.186 618.664 445.056 619.534C445.926 620.405 446.616 621.437 447.087 622.574C447.558 623.711 447.8 624.929 447.8 626.16ZM699.65 702.59C687 741.77 615 799.91 558.09 812.55C501.18 825.19 457 808.76 438 791.06C419 773.36 376.07 758.2 340.68 739.24C305.29 720.28 295.18 672.24 302.76 640.66C310.34 609.08 314.13 586.31 304.02 567.35C293.91 548.39 293.91 513 309.08 490.25C324.25 467.5 348.26 429.58 348.26 429.58C348.26 429.58 355.84 449.8 359.64 461.18C363.44 472.56 373.54 472.55 382.39 495.31C391.24 518.07 403.88 507.95 419.04 494.05C434.2 480.15 435.47 461.19 416.51 435.91C397.55 410.63 392.51 357.55 439.26 309.52C486.01 261.49 461.7 179 461.7 179C461.7 179 511.33 189.45 563.15 252.65C614.97 315.85 595 378.55 624.33 392.41C670 414 682 443.94 682 443.94C708.93 506.87 676.94 497.83 687.06 534.49C697.18 571.15 719.92 569.88 726.24 617.91C732.56 665.94 699.65 702.59 699.65 702.59ZM661.49 634.79C661.364 627.66 660.813 620.544 659.84 613.48C640.73 609.14 630.67 616.24 630.67 616.24C641.73 624.24 646.02 637.36 646.02 637.36C648.12 650.55 643.02 657.87 636.45 661.82C629.58 665.97 621.27 666.02 621.27 666.02C586.07 659.02 608.69 619.18 608.69 619.18C576.69 608 564.08 651.29 564.08 651.29C563.32 634.86 564.77 620.97 579.39 609.11C593.47 597.69 619.8 606.55 619.8 606.55C637.24 596.65 652.09 599.91 657.6 601.73C651.85 578.4 640.33 566.24 626.2 552.99C603.85 531.99 557.2 522.27 509.92 527.99C509.92 527.99 485.92 484.67 443.4 492.31L445.62 544.58C445.62 544.58 406.08 573.73 400.73 611.58L384.96 612.79C384.96 612.79 373.58 615.32 373.58 626.69V663.34C373.58 663.34 377.37 674.71 386.22 674.71L402.47 674.4C402.47 674.4 410.36 704.47 438.47 724.19V749.33C438.47 749.33 436.47 757.71 453.75 760.17C471.03 762.63 493.92 762.39 497.62 758.69C501.32 754.99 501.32 754.25 501.32 749.82C501.32 749.82 522.27 754.75 560.72 749.82V754.75C560.72 754.75 564.17 761.65 589.31 761.65C614.45 761.65 621.84 758.65 626.31 749.82V725.24C626.31 725.24 662.73 689.49 661.49 634.79ZM620.55 624.79C620.55 624.79 604.1 655.79 626.08 654.14C626.08 654.14 637.75 648.56 630.9 637.26C623.85 625.63 620.55 624.8 620.55 624.8V624.79Z" fill="white"/>
</g>
<defs>
<clipPath id="clip0_2_2205">
<rect width="1024" height="1024" fill="white"/>
</clipPath>
</defs>
</svg>

<svg xmlns="http://www.w3.org/2000/svg" viewBox="0 0 1024 1024">
   <circle cx="512" cy="512" r="512" style="fill:#cd5029"/>
   <path d="M447.8 626.16a9.37 9.37 0 1 1-9.37-9.37 9.37 9.37 0 0 1 9.37 9.37zm251.85 76.43C687 741.77 615 799.91 558.09 812.55S457 808.76 438 791.06s-61.93-32.86-97.32-51.82-45.5-67-37.92-98.58 11.37-54.35 1.26-73.31-10.11-54.35 5.06-77.1 39.18-60.67 39.18-60.67 7.58 20.22 11.38 31.6 13.9 11.37 22.75 34.13 21.49 12.64 36.65-1.26 16.43-32.86-2.53-58.14-24-78.36 22.75-126.39S461.7 179 461.7 179s49.63 10.45 101.45 73.65 31.85 125.9 61.18 139.76C670 414 682 443.94 682 443.94c26.93 62.93-5.06 53.89 5.06 90.55s32.86 35.39 39.18 83.42-26.59 84.68-26.59 84.68zm-38.16-67.8a179.44 179.44 0 0 0-1.65-21.31c-19.11-4.34-29.17 2.76-29.17 2.76 11.06 8 15.35 21.12 15.35 21.12 2.1 13.19-3 20.51-9.57 24.46-6.87 4.15-15.18 4.2-15.18 4.2-35.2-7-12.58-46.84-12.58-46.84-32-11.18-44.61 32.11-44.61 32.11-.76-16.43.69-30.32 15.31-42.18 14.08-11.42 40.41-2.56 40.41-2.56 17.44-9.9 32.29-6.64 37.8-4.82-5.75-23.33-17.27-35.49-31.4-48.74-22.35-21-69-30.72-116.28-25 0 0-24-43.32-66.52-35.68l2.22 52.27s-39.54 29.15-44.89 67l-15.77 1.21s-11.38 2.53-11.38 13.9v36.65s3.79 11.37 12.64 11.37l16.25-.31s7.89 30.07 36 49.79v25.14s-2 8.38 15.28 10.84 40.17 2.22 43.87-1.48 3.7-4.44 3.7-8.87c0 0 20.95 4.93 59.4 0v4.93s3.45 6.9 28.59 6.9 32.53-3 37-11.83v-24.58s36.42-35.75 35.18-90.45zm-40.94-10s-16.45 31 5.53 29.35c0 0 11.67-5.58 4.82-16.88-7.05-11.63-10.35-12.46-10.35-12.46z" style="fill:#fff"/>
</svg>
